dist/flags/s/760.svg

<svg width="16" height="12" viewBox="0 0 16 12" fill="none" xmlns="http://www.w3.org/2000/svg">
<mask id="mask0" mask-type="alpha" maskUnits="userSpaceOnUse" x="0" y="0" width="16" height="12">
<rect width="16" height="12" fill="white"/>
</mask>
<g mask="url(#mask0)">
<path fill-rule="evenodd" clip-rule="evenodd" d="M0 0H16V12H0V0Z" fill="#F7FCFF"/>
<path fill-rule="evenodd" clip-rule="evenodd" d="M4.5009 6.93534L3.56556 7.5L3.77891 6.39812L3 5.57347L4.05468 5.52888L4.5009 4.5L4.94711 5.52888H6L5.22289 6.39812L5.45685 7.5L4.5009 6.93534Z" fill="#409100"/>
<path fill-rule="evenodd" clip-rule="evenodd" d="M11.5009 6.93534L10.5656 7.5L10.7789 6.39812L10 5.57347L11.0547 5.52888L11.5009 4.5L11.9471 5.52888H13L12.2229 6.39812L12.4568 7.5L11.5009 6.93534Z" fill="#409100"/>
<path fill-rule="evenodd" clip-rule="evenodd" d="M0 0V4H16V0H0Z" fill="#E31D1C"/>
<path fill-rule="evenodd" clip-rule="evenodd" d="M0 8V12H16V8H0Z" fill="#272727"/>
</g>
</svg>

<svg width="16" height="12" fill="none" xmlns="http://www.w3.org/2000/svg">
  <mask id="a" maskUnits="userSpaceOnUse" x="0" y="0" width="16" height="12">
    <path fill="#fff" d="M0 0h16v12H0z"/>
  </mask>
  <g mask="url(#a)" fill-rule="evenodd" clip-rule="evenodd">
    <path d="M0 0h16v12H0V0z" fill="#F7FCFF"/>
    <path d="M4.5 6.935l-.934.565.213-1.102L3 5.573l1.055-.044L4.5 4.5l.446 1.029H6l-.777.87.234 1.101-.956-.565zm7 0l-.934.565.213-1.102L10 5.573l1.055-.044L11.5 4.5l.446 1.029H13l-.777.87.234 1.101-.956-.565z" fill="#409100"/>
    <path d="M0 0v4h16V0H0z" fill="#E31D1C"/>
    <path d="M0 8v4h16V8H0z" fill="#272727"/>
  </g>
</svg>
